map_marker_monochrome/openmoji_rice_cracker.svg

<svg xmlns="http://www.w3.org/2000/svg" width="24" height="24" viewBox="0 0 24 24"> <g transform="scale(0.333333333)">  <g id="line">
    <path fill="none" stroke="#000000" stroke-linecap="round" stroke-linejoin="round" stroke-miterlimit="10" stroke-width="2" d="M54.2,58.5c0.4-0.3,0.8-0.6,1.2-0.9c0.6-0.6,0.8-1.5,0.5-2.3c0.3,0,0.5-0.1,0.8-0.3c0.7-0.5,1.1-1.3,0.9-2.1 c0.9,0.4,1.9,0.1,2.5-0.7c0.5-0.7,0.4-1.7-0.1-2.3c0.3-0.1,0.5-0.3,0.7-0.5c0.6-0.6,0.7-1.5,0.4-2.2c0.9,0.2,1.9-0.4,2.2-1.3 c0.3-0.8,0-1.7-0.6-2.2c0.2-0.2,0.4-0.4,0.6-0.6c0.4-0.7,0.3-1.6-0.2-2.3c0.9-0.1,1.7-0.8,1.8-1.8c0.1-0.9-0.4-1.7-1.1-2 c0.2-0.2,0.3-0.5,0.4-0.7c0.2-0.8-0.1-1.7-0.7-2.1c0.9-0.3,1.5-1.2,1.4-2.2c-0.1-0.9-0.8-1.5-1.6-1.7c0.1-0.2,0.2-0.5,0.2-0.8 c0-0.9-0.5-1.6-1.2-1.9c0.8-0.5,1.2-1.5,0.8-2.4c-0.3-0.8-1.1-1.3-2-1.2c0.1-0.3,0.1-0.5,0-0.8c-0.2-0.8-0.9-1.4-1.7-1.6 c0.7-0.7,0.8-1.8,0.2-2.6c-0.5-0.7-1.4-1-2.2-0.7c0-0.3-0.1-0.5-0.2-0.8c-0.4-0.8-1.2-1.2-2-1.1c0.5-0.8,0.3-1.9-0.4-2.5 s-1.6-0.6-2.3-0.2c-0.1-0.3-0.2-0.5-0.4-0.7c-0.5-0.7-1.4-0.9-2.2-0.6c0.3-0.9-0.2-1.9-1-2.3c-0.8-0.4-1.7-0.2-2.3,0.4 c-0.1-0.2-0.3-0.5-0.6-0.6c-0.7-0.5-1.6-0.5-2.3,0c0-0.9-0.6-1.8-1.6-2c-0.9-0.2-1.7,0.2-2.1,0.9c-0.2-0.2-0.4-0.4-0.7-0.5 C38.4,7.8,37.6,8,37,8.6C36.8,7.7,36,7,35,7c-0.9,0-1.6,0.6-1.8,1.4c-0.2-0.1-0.5-0.2-0.8-0.3c-0.8-0.1-1.6,0.3-2,1 c-0.4-0.9-1.4-1.3-2.3-1c-0.8,0.2-1.4,1-1.4,1.8c-0.3-0.1-0.5-0.1-0.8-0.1c-0.8,0.1-1.5,0.7-1.7,1.5c-0.6-0.7-1.7-0.9-2.5-0.4 c-0.8,0.4-1.1,1.3-1,2.1c-0.3,0-0.6,0-0.8,0.1c-0.8,0.3-1.3,1-1.3,1.9c-0.8-0.6-1.8-0.5-2.6,0.2c-0.6,0.6-0.8,1.5-0.4,2.3 c-0.3,0-0.5,0.1-0.8,0.3c-0.7,0.5-1,1.3-0.8,2.1c-0.9-0.4-1.9,0-2.4,0.8c-0.5,0.7-0.4,1.7,0.1,2.3c-0.2,0.1-0.5,0.3-0.7,0.5 c-0.6,0.6-0.7,1.5-0.3,2.3c-0.9-0.1-1.9,0.4-2.2,1.4c-0.3,0.8,0,1.7,0.7,2.2C9,29.6,8.8,29.8,8.7,30c-0.4,0.8-0.3,1.6,0.3,2.3 C7.9,32.2,7.1,33,7.1,34c-0.1,0.9,0.5,1.6,1.2,2c-0.2,0.2-0.3,0.5-0.4,0.7c-0.2,0.8,0.1,1.7,0.8,2.1C7.8,39.1,7.3,40,7.4,41 c0.2,0.9,0.8,1.5,1.7,1.6c-0.1,0.2-0.2,0.5-0.2,0.8c0,0.9,0.5,1.6,1.3,1.9c-0.8,0.5-1.1,1.6-0.7,2.5c0.4,0.8,1.2,1.2,2,1.2 c0,0.3,0,0.6,0,0.8c0.2,0.8,0.9,1.4,1.7,1.5c-0.6,0.7-0.7,1.8-0.1,2.6c0.5,0.7,1.4,0.9,2.2,0.7c0,0.3,0.1,0.5,0.2,0.8 c0.4,0.8,1.2,1.1,2,1c-0.4,0.8-0.2,1.9,0.5,2.5"/>
    <path fill="none" stroke="#000000" stroke-linecap="round" stroke-linejoin="round" stroke-miterlimit="10" stroke-width="2" d="M50,62.6c-4.2,2.2-9,3.4-14,3.4c-5.1,0-9.8-1.3-14-3.5V44h28V62.6z"/>
  </g></g></svg>

<svg xmlns="http://www.w3.org/2000/svg" width="24" height="24" viewBox="0 0 24 24"> <g transform="translate(0.23134622950819583 0.0) scale(0.39344262295081966)">
  
  <g
     id="line"
     transform="translate(-6.0891342,-6)">
    <path
       fill="none"
       stroke="#000"
       stroke-linecap="round"
       stroke-linejoin="round"
       stroke-miterlimit="10"
       stroke-width="2"
       d="m 54.2,58.5 c 0.4,-0.3 0.8,-0.6 1.2,-0.9 0.6,-0.6 0.8,-1.5 0.5,-2.3 0.3,0 0.5,-0.1 0.8,-0.3 0.7,-0.5 1.1,-1.3 0.9,-2.1 0.9,0.4 1.9,0.1 2.5,-0.7 0.5,-0.7 0.4,-1.7 -0.1,-2.3 0.3,-0.1 0.5,-0.3 0.7,-0.5 0.6,-0.6 0.7,-1.5 0.4,-2.2 0.9,0.2 1.9,-0.4 2.2,-1.3 0.3,-0.8 0,-1.7 -0.6,-2.2 0.2,-0.2 0.4,-0.4 0.6,-0.6 0.4,-0.7 0.3,-1.6 -0.2,-2.3 C 64,40.7 64.8,40 64.9,39 65,38.1 64.5,37.3 63.8,37 64,36.8 64.1,36.5 64.2,36.3 64.4,35.5 64.1,34.6 63.5,34.2 64.4,33.9 65,33 64.9,32 c -0.1,-0.9 -0.8,-1.5 -1.6,-1.7 0.1,-0.2 0.2,-0.5 0.2,-0.8 0,-0.9 -0.5,-1.6 -1.2,-1.9 0.8,-0.5 1.2,-1.5 0.8,-2.4 -0.3,-0.8 -1.1,-1.3 -2,-1.2 0.1,-0.3 0.1,-0.5 0,-0.8 -0.2,-0.8 -0.9,-1.4 -1.7,-1.6 0.7,-0.7 0.8,-1.8 0.2,-2.6 -0.5,-0.7 -1.4,-1 -2.2,-0.7 0,-0.3 -0.1,-0.5 -0.2,-0.8 -0.4,-0.8 -1.2,-1.2 -2,-1.1 0.5,-0.8 0.3,-1.9 -0.4,-2.5 -0.7,-0.6 -1.6,-0.6 -2.3,-0.2 -0.1,-0.3 -0.2,-0.5 -0.4,-0.7 -0.5,-0.7 -1.4,-0.9 -2.2,-0.6 0.3,-0.9 -0.2,-1.9 -1,-2.3 C 48.1,9.7 47.2,9.9 46.6,10.5 46.5,10.3 46.3,10 46,9.9 45.3,9.4 44.4,9.4 43.7,9.9 43.7,9 43.1,8.1 42.1,7.9 41.2,7.7 40.4,8.1 40,8.8 39.8,8.6 39.6,8.4 39.3,8.3 38.4,7.8 37.6,8 37,8.6 36.8,7.7 36,7 35,7 34.1,7 33.4,7.6 33.2,8.4 33,8.3 32.7,8.2 32.4,8.1 31.6,8 30.8,8.4 30.4,9.1 30,8.2 29,7.8 28.1,8.1 27.3,8.3 26.7,9.1 26.7,9.9 26.4,9.8 26.2,9.8 25.9,9.8 c -0.8,0.1 -1.5,0.7 -1.7,1.5 -0.6,-0.7 -1.7,-0.9 -2.5,-0.4 -0.8,0.4 -1.1,1.3 -1,2.1 -0.3,0 -0.6,0 -0.8,0.1 -0.8,0.3 -1.3,1 -1.3,1.9 -0.8,-0.6 -1.8,-0.5 -2.6,0.2 -0.6,0.6 -0.8,1.5 -0.4,2.3 -0.3,0 -0.5,0.1 -0.8,0.3 -0.7,0.5 -1,1.3 -0.8,2.1 -0.9,-0.4 -1.9,0 -2.4,0.8 -0.5,0.7 -0.4,1.7 0.1,2.3 -0.2,0.1 -0.5,0.3 -0.7,0.5 -0.6,0.6 -0.7,1.5 -0.3,2.3 -0.9,-0.1 -1.9,0.4 -2.2,1.4 -0.3,0.8 0,1.7 0.7,2.2 C 9,29.6 8.8,29.8 8.7,30 8.3,30.8 8.4,31.6 9,32.3 7.9,32.2 7.1,33 7.1,34 7,34.9 7.6,35.6 8.3,36 8.1,36.2 8,36.5 7.9,36.7 7.7,37.5 8,38.4 8.7,38.8 7.8,39.1 7.3,40 7.4,41 c 0.2,0.9 0.8,1.5 1.7,1.6 -0.1,0.2 -0.2,0.5 -0.2,0.8 0,0.9 0.5,1.6 1.3,1.9 -0.8,0.5 -1.1,1.6 -0.7,2.5 0.4,0.8 1.2,1.2 2,1.2 0,0.3 0,0.6 0,0.8 0.2,0.8 0.9,1.4 1.7,1.5 -0.6,0.7 -0.7,1.8 -0.1,2.6 0.5,0.7 1.4,0.9 2.2,0.7 0,0.3 0.1,0.5 0.2,0.8 0.4,0.8 1.2,1.1 2,1 -0.4,0.8 -0.2,1.9 0.5,2.5"
       id="path2" />
    <path
       fill="none"
       stroke="#000"
       stroke-linecap="round"
       stroke-linejoin="round"
       stroke-miterlimit="10"
       stroke-width="2"
       d="M 50,62.6 C 45.8,64.8 41,66 36,66 30.9,66 26.2,64.7 22,62.5 V 44 h 28 z"
       id="path4" />
  </g>
</g></svg>
